X:122
T:Soldier's Joy
M:2/4
L:1/16
K:D
FG|AFDF AFDF|A2.d2 .d2cB|AFDF AFDF|G2E2 E2FG|AFDF AFDF|A2d2 d2de|
fafd egec|.d2.d2.d2::de|fdfd fagf|ecec egfe|fdfd fagf|
edcB A2de|fdfd fagf|ecec egfe|fafd egec|d2d2d2:|

